img/icons/services/dog_collar_24x.svg

<svg width="63" height="63" viewBox="0 0 63 63" fill="none" xmlns="http://www.w3.org/2000/svg">
<path d="M30.5156 30.5156H32.4844V35.4375H30.5156V30.5156Z" fill="#CBCBCB"/>
<path d="M2.95312 18.7031H60.0469V30.5156H2.95312V18.7031Z" fill="#50559F"/>
<path d="M17.7188 18.7031H60.0469V30.5156H17.7188C16.1523 30.5156 14.65 29.8934 13.5424 28.7857C12.4348 27.6781 11.8125 26.1758 11.8125 24.6094C11.8125 23.0429 12.4348 21.5407 13.5424 20.433C14.65 19.3254 16.1523 18.7031 17.7188 18.7031V18.7031Z" fill="#5D62B5"/>
<path d="M41.3438 23.625H43.3125V25.5938H41.3438V23.625Z" fill="#50559F"/>
<path d="M45.2812 23.625H47.25V25.5938H45.2812V23.625Z" fill="#50559F"/>
<path d="M49.2188 23.625H51.1875V25.5938H49.2188V23.625Z" fill="#50559F"/>
<path d="M24.6094 17.7188V31.5H38.3906V17.7188H24.6094ZM34.4531 27.5625H28.5469V21.6562H34.4531V27.5625Z" fill="#E4E4E2"/>
<path d="M38.3906 39.375C38.3906 40.7378 37.9865 42.0701 37.2293 43.2032C36.4722 44.3364 35.396 45.2196 34.1369 45.7411C32.8778 46.2626 31.4924 46.3991 30.1557 46.1332C28.8191 45.8673 27.5913 45.2111 26.6276 44.2474C25.6639 43.2837 25.0077 42.0559 24.7418 40.7193C24.4759 39.3826 24.6124 37.9972 25.1339 36.7381C25.6554 35.479 26.5386 34.4028 27.6718 33.6457C28.8049 32.8885 30.1372 32.4844 31.5 32.4844C33.3274 32.4846 35.0799 33.2107 36.3721 34.5029C37.6643 35.7951 38.3904 37.5476 38.3906 39.375Z" fill="#F3AF3E"/>
<path d="M34.4531 21.6562H35.4375V27.5625H34.4531V21.6562Z" fill="#CBCBCB"/>
<path d="M23.625 18.7031H24.6094V30.5156H23.625V18.7031Z" fill="#50559F"/>
</svg>

<svg width="63" height="63" fill="none" xmlns="http://www.w3.org/2000/svg">
  <path d="M30.516 30.516h1.968v4.922h-1.968v-4.922z" fill="#CBCBCB"/>
  <path d="M2.953 18.703h57.094v11.813H2.953V18.703z" fill="#50559F"/>
  <path d="M17.719 18.703h42.328v11.813H17.719a5.906 5.906 0 110-11.813z" fill="#5D62B5"/>
  <path d="M41.344 23.625h1.968v1.969h-1.968v-1.969zM45.281 23.625h1.969v1.969h-1.969v-1.969zM49.219 23.625h1.968v1.969H49.22v-1.969z" fill="#50559F"/>
  <path d="M24.61 17.719V31.5h13.78V17.719H24.61zm9.843 9.843h-5.906v-5.906h5.906v5.907z" fill="#E4E4E2"/>
  <path d="M38.39 39.375a6.89 6.89 0 11-13.78 0 6.89 6.89 0 0113.78 0z" fill="#F3AF3E"/>
  <path d="M34.453 21.656h.984v5.907h-.984v-5.907z" fill="#CBCBCB"/>
  <path d="M23.625 18.703h.984v11.813h-.984V18.703z" fill="#50559F"/>
</svg>
